X:97
T:Manchester Festival Quadrille 1
C:Ellis Knowles
S:Ellis Knowles Manuscript 1840's
B:Plain Brown Tune Book
M:6/8
L:1/16
Q:389
K:C
c6 e6 |  g6 g2e2A2 | g2e2c2 g2e2c2 | f2e2d2 c2B2A2 | G6 B4 d2 | f6 a4 f2
 | e2g2f2 d2g2e2 | c6 c4 ||!
g2 | a4 f2 c2f2a2 | g4 e2 c2e2g2 |  f4 d2 B4 G2 | c4 e2 c4 g2 | a4 f2 c2
f2a2 | g4 e2 c'2g2e2 | d4 c2 B3ccB | G6 G4 ||!
F2 | c4 A2 B4 c2 | A6 F2c2d2 | e4 c2 d4 e2 | c6 B4 F2 | c4 A2 B4 e2 | d6
 e4 d2 | c2d2c2 B2c2B2 | A6 A8 z2 ||!
